docs/img/stages-1.svg

<svg width="48" height="48" viewBox="0 0 48 48" fill="none" xmlns="http://www.w3.org/2000/svg">
<path d="M47.6993 12.5873L35.4127 0.300739C35.0117 -0.100246 34.3639 -0.100246 33.9629 0.300739L0.300739 33.9629C-0.100246 34.3639 -0.100246 35.0117 0.300739 35.4127L12.5873 47.6993C12.9883 48.1002 13.6361 48.1002 14.0371 47.6993L47.6993 14.0371C48.1002 13.6361 48.1002 12.9883 47.6993 12.5873ZM13.3071 45.5195L2.48045 34.6929L10.6133 26.5601L14.3044 30.2513C14.6951 30.6625 15.3531 30.6728 15.7541 30.2718C16.1654 29.8811 16.1756 29.2231 15.7747 28.8221C15.7644 28.8118 15.7644 28.8118 15.7541 28.8015L12.063 25.1207L14.7465 22.4372L20.5042 28.1949C20.9052 28.5959 21.5632 28.5959 21.9539 28.1846C22.3549 27.7837 22.3549 27.1359 21.9539 26.7349L16.1962 20.9772L18.8797 18.2937L22.5708 21.9745C22.9718 22.3755 23.6196 22.3755 24.0206 21.9745C24.4215 21.5735 24.4215 20.9258 24.0206 20.5248L20.3294 16.844L23.013 14.1604L28.7707 19.9182C29.1717 20.3192 29.8194 20.3192 30.2204 19.9182C30.6214 19.5172 30.6214 18.8694 30.2204 18.4685L24.4627 12.7107L27.1462 10.0272L30.8373 13.7183C31.2383 14.1193 31.886 14.1296 32.287 13.7286C32.688 13.3276 32.6983 12.6799 32.2973 12.2789C32.2973 12.2789 32.2973 12.2789 32.287 12.2686L28.6268 8.54664L31.3103 5.86312L37.068 11.6209C37.469 12.0218 38.1167 12.0218 38.5177 11.6209C38.9187 11.2199 38.9187 10.5721 38.5177 10.1711L32.76 4.41341L34.6929 2.48045L45.5195 13.3071L13.3071 45.5195Z" fill="#212B31"/>
<path d="M14.1192 34.0657C12.8237 32.7805 10.7365 32.7805 9.45133 34.0657C8.16612 35.3612 8.16612 37.4484 9.45133 38.7336C10.7365 40.0188 12.834 40.0188 14.1192 38.7336C15.4044 37.4484 15.4044 35.3612 14.1192 34.0657ZM12.7723 37.253C12.7518 37.2736 12.7209 37.3044 12.6592 37.2942C12.176 37.7774 11.3843 37.7774 10.8908 37.2942C10.4075 36.8109 10.4075 36.0192 10.8908 35.5257C11.374 35.0425 12.1657 35.0425 12.6592 35.5257C13.163 35.9884 13.235 36.7492 12.7723 37.253Z" fill="#212B31"/>
</svg>

<svg width="48" height="48" fill="none" xmlns="http://www.w3.org/2000/svg"><path d="M47.7 12.587 35.412.301a1.024 1.024 0 0 0-1.45 0L.3 33.963a1.024 1.024 0 0 0 0 1.45l12.286 12.286c.401.401 1.05.401 1.45 0L47.7 14.037c.401-.4.401-1.049 0-1.45ZM13.306 45.52 2.48 34.693l8.133-8.133 3.691 3.691c.391.412 1.05.422 1.45.02.411-.39.422-1.048.02-1.449l-.02-.02-3.691-3.681 2.683-2.684 5.758 5.758a1.015 1.015 0 0 0 1.45-.01c.4-.401.4-1.05 0-1.45l-5.758-5.758 2.684-2.683 3.69 3.68a1.024 1.024 0 1 0 1.45-1.45l-3.69-3.68 2.683-2.684 5.758 5.758a1.024 1.024 0 1 0 1.45-1.45l-5.758-5.757 2.683-2.684 3.691 3.691a1.024 1.024 0 1 0 1.46-1.44l-.01-.01-3.66-3.721 2.683-2.684 5.758 5.758a1.024 1.024 0 1 0 1.45-1.45L32.76 4.413l1.933-1.933L45.52 13.307 13.306 45.52Z" fill="#212B31"/><path d="M14.12 34.066a3.308 3.308 0 0 0-4.669 0 3.308 3.308 0 0 0 0 4.668 3.308 3.308 0 0 0 4.668 0 3.308 3.308 0 0 0 0-4.668Zm-1.348 3.187c-.02.02-.051.051-.113.041a1.26 1.26 0 0 1-1.768 0 1.26 1.26 0 0 1 0-1.768 1.26 1.26 0 0 1 1.768 0c.504.462.576 1.223.113 1.727Z" fill="#212B31"/></svg>
